resources/haticons/SVG/id-card.svg

<!-- Generated by IcoMoon.io -->
<svg version="1.1" xmlns="http://www.w3.org/2000/svg" width="24" height="24" viewBox="0 0 24 24">
<title>id-card</title>
<path d="M4.941 12.706h6.353c0.423 0 0.706-0.282 0.706-0.706s-0.282-0.706-0.706-0.706h-6.353c-0.423 0-0.706 0.282-0.706 0.706s0.282 0.706 0.706 0.706zM4.941 9.177h6.353c0.423 0 0.706-0.282 0.706-0.706s-0.282-0.706-0.706-0.706h-6.353c-0.423 0-0.706 0.282-0.706 0.706s0.282 0.706 0.706 0.706zM21.882 3.529h-19.765c-1.129 0-2.118 0.988-2.118 2.118v12.706c0 1.129 0.988 2.118 2.118 2.118h19.765c1.129 0 2.118-0.988 2.118-2.118v-12.706c0-1.129-0.988-2.118-2.118-2.118zM22.588 18.353c0 0.423-0.282 0.706-0.706 0.706h-19.765c-0.423 0-0.706-0.282-0.706-0.706v-12.706c0-0.423 0.282-0.706 0.706-0.706h19.765c0.423 0 0.706 0.282 0.706 0.706zM19.059 14.823h-14.118c-0.423 0-0.706 0.282-0.706 0.706s0.282 0.706 0.706 0.706h14.118c0.423 0 0.706-0.282 0.706-0.706s-0.282-0.706-0.705-0.706zM19.059 7.483h-3.67c-0.423 0-0.706 0.282-0.706 0.706v4.235c0 0.423 0.282 0.706 0.706 0.706h3.67c0.423 0 0.706-0.282 0.706-0.706v-4.235c0-0.423-0.282-0.706-0.706-0.706zM18.353 11.718h-2.259v-2.823h2.259z"></path>
</svg>

<svg xmlns="http://www.w3.org/2000/svg" width="24" height="24"><path d="M4.941 12.706h6.353c.423 0 .706-.282.706-.706s-.282-.706-.706-.706H4.941c-.423 0-.706.282-.706.706s.282.706.706.706zm0-3.529h6.353c.423 0 .706-.282.706-.706s-.282-.706-.706-.706H4.941c-.423 0-.706.282-.706.706s.282.706.706.706zm16.941-5.648H2.117c-1.129 0-2.118.988-2.118 2.118v12.706c0 1.129.988 2.118 2.118 2.118h19.765c1.129 0 2.118-.988 2.118-2.118V5.647c0-1.129-.988-2.118-2.118-2.118zm.706 14.824c0 .423-.282.706-.706.706H2.117c-.423 0-.706-.282-.706-.706V5.647c0-.423.282-.706.706-.706h19.765c.423 0 .706.282.706.706zm-3.529-3.53H4.941c-.423 0-.706.282-.706.706s.282.706.706.706h14.118c.423 0 .706-.282.706-.706s-.282-.706-.705-.706zm0-7.34h-3.67c-.423 0-.706.282-.706.706v4.235c0 .423.282.706.706.706h3.67c.423 0 .706-.282.706-.706V8.189c0-.423-.282-.706-.706-.706zm-.706 4.235h-2.259V8.895h2.259z"/></svg>
